files/resources/svgs/general/m-bell-slash.svg

<svg width="20" height="20" viewBox="0 0 20 20" fill="none" xmlns="http://www.w3.org/2000/svg">
<path d="M3.99997 8C3.99997 7.73938 4.01658 7.48265 4.04881 7.23079L11.7713 14.9533C11.1847 14.9843 10.5942 15 9.99997 15C9.34517 15 8.69477 14.9809 8.0493 14.9433C8.25097 15.8345 9.04777 16.5 10 16.5C10.8982 16.5 11.6581 15.9079 11.9107 15.0927L13.045 16.227C12.4432 17.2858 11.305 18 10 18C8.17421 18 6.67494 16.602 6.51426 14.818C5.41181 14.7023 4.32537 14.5322 3.25769 14.3105C3.02851 14.2629 2.83469 14.1111 2.73365 13.9C2.6326 13.6888 2.63591 13.4426 2.7426 13.2343C3.54624 11.6651 3.99997 9.88663 3.99997 8Z" fill="#0F172A"/>
<path d="M17.2663 13.9C17.2467 13.9408 17.2237 13.9795 17.1976 14.0156L6.38945 3.20747C7.39404 2.44946 8.64452 2 9.99997 2C13.3137 2 16 4.68629 16 8C16 9.88663 16.4537 11.6651 17.2573 13.2343C17.364 13.4426 17.3673 13.6888 17.2663 13.9Z" fill="#0F172A"/>
<path d="M3.28033 2.21967C2.98744 1.92678 2.51256 1.92678 2.21967 2.21967C1.92678 2.51256 1.92678 2.98744 2.21967 3.28033L16.7197 17.7803C17.0126 18.0732 17.4874 18.0732 17.7803 17.7803C18.0732 17.4874 18.0732 17.0126 17.7803 16.7197L3.28033 2.21967Z" fill="#0F172A"/>
</svg>

<svg xmlns="http://www.w3.org/2000/svg" viewBox="0 0 20 20" fill="currentColor" aria-hidden="true">
  <path d="M4 8c0-.26.017-.517.049-.77l7.722 7.723a33.56 33.56 0 01-3.722-.01 2 2 0 003.862.15l1.134 1.134a3.5 3.5 0 01-6.53-1.409 32.91 32.91 0 01-3.257-.508.75.75 0 01-.515-1.076A11.448 11.448 0 004 8zM17.266 13.9a.756.756 0 01-.068.116L6.389 3.207A6 6 0 0116 8c.001 1.887.455 3.665 1.258 5.234a.75.75 0 01.01.666zM3.28 2.22a.75.75 0 00-1.06 1.06l14.5 14.5a.75.75 0 101.06-1.06L3.28 2.22z"/>
</svg>
